src/assets/icons/sign-up.svg

<?xml version="1.0" encoding="UTF-8" standalone="no"?>
<!-- Uploaded to: SVG Repo, www.svgrepo.com, Generator: SVG Repo Mixer Tools -->

<svg
   width="800px"
   height="800px"
   viewBox="0 0 24 24"
   fill="none"
   version="1.1"
   id="svg2"
   sodipodi:docname="sign-up - Copy.svg"
   inkscape:version="1.3.2 (091e20e, 2023-11-25, custom)"
   xmlns:inkscape="http://www.inkscape.org/namespaces/inkscape"
   xmlns:sodipodi="http://sodipodi.sourceforge.net/DTD/sodipodi-0.dtd"
   xmlns="http://www.w3.org/2000/svg"
   xmlns:svg="http://www.w3.org/2000/svg">
  <defs
     id="defs2" />
  <sodipodi:namedview
     id="namedview2"
     pagecolor="#ffffff"
     bordercolor="#000000"
     borderopacity="0.25"
     inkscape:showpageshadow="2"
     inkscape:pageopacity="0.0"
     inkscape:pagecheckerboard="0"
     inkscape:deskcolor="#d1d1d1"
     inkscape:zoom="0.97125"
     inkscape:cx="399.4852"
     inkscape:cy="400"
     inkscape:window-width="1920"
     inkscape:window-height="991"
     inkscape:window-x="-9"
     inkscape:window-y="-9"
     inkscape:window-maximized="1"
     inkscape:current-layer="svg2" />
  <path
     fill-rule="evenodd"
     clip-rule="evenodd"
     d="M20 23L12 23C11.4477 23 11 22.5523 11 22C11 21.4477 11.4477 21 12 21L20 21C20.5523 21 21 20.5523 21 20L21 4C21 3.44771 20.5523 3 20 3L12 3C11.4477 3 11 2.55228 11 2C11 1.44772 11.4477 1 12 1L20 0.999999C21.6569 0.999999 23 2.34315 23 4L23 20C23 21.6569 21.6569 23 20 23Z"
     fill="#0F0F0F"
     id="path1" />
  <path
     d="m 9.9449125,7.2250671 c 6.8e-6,-0.5522928 0.4477315,-0.999992 1.0000095,-0.9999852 0.552286,-3e-7 1,0.447724 0.999986,1.0000098 l -5.9e-5,3.6594753 3.655763,2.4e-5 c 0.552335,6.4e-5 0.999999,0.447738 0.999978,1.000003 4.3e-5,0.552342 -0.447674,1.000048 -1.000017,0.999992 l -3.655749,-3.7e-5 2.6e-5,3.654257 c -7.8e-5,0.552321 -0.447753,0.999985 -1.000003,0.999978 -0.552392,-7e-6 -1.0000558,-0.447682 -1.000049,-1.000074 l 4.47e-5,-3.654186 -3.6554097,4e-6 C 5.7371685,12.884507 5.2894552,12.436783 5.2894478,11.884519 5.2895112,11.332183 5.737186,10.88452 6.2895212,10.88447 l 3.6553461,7.3e-5 z"
     fill="#0f0f0f"
     id="path1-6" />
</svg>

<svg xmlns="http://www.w3.org/2000/svg" width="800" height="800" fill="none" viewBox="0 0 24 24">
   <path fill="#0F0F0F" fill-rule="evenodd"
      d="M20 23h-8a1 1 0 1 1 0-2h8a1 1 0 0 0 1-1V4a1 1 0 0 0-1-1h-8a1 1 0 1 1 0-2h8a3 3 0 0 1 3 3v16a3 3 0 0 1-3 3Z"
      clip-rule="evenodd" />
   <path fill="#0f0f0f"
      d="M9.945 7.225a1 1 0 1 1 2 0v3.66H15.6a1 1 0 1 1 0 2h-3.656v3.654a1 1 0 0 1-2 0v-3.654H6.289a1 1 0 0 1 0-2h3.656z" />
</svg>
